src/main/resources/icons/AllIcons/runConfigurations/remote.svg

<svg xmlns="http://www.w3.org/2000/svg" width="16" height="16" viewBox="0 0 16 16"><rect id="frame" width="16" height="16" fill="none"/><g fill="none" fill-rule="evenodd"><path fill="#40B6E0" fill-opacity=".6" d="M11 9v3H3V9z"/><path fill="#231F20" fill-opacity=".7" d="M12 6.504L9 4v2H3v2h1V7l5-.003V9z"/><path fill="#9AA7B0" fill-opacity=".8" d="M4 3v2H2v8h10v-2h1v3H1V3h3z"/><path fill="#9AA7B0" fill-opacity=".8" d="M13 10V9h1V3H6v2H5V1h10v9h-2z"/></g></svg>

<!-- Copyright 2000-2021 JetBrains s.r.o. Use of this source code is governed by the Apache 2.0 license that can be found in the LICENSE file. -->
<svg xmlns="http://www.w3.org/2000/svg" width="16" height="16" viewBox="0 0 16 16">
  <g fill="none" fill-rule="evenodd">
    <polygon fill="#40B6E0" fill-opacity=".6" points="11 9 11 12 3 12 3 9"/>
    <polygon fill="#231F20" fill-opacity=".7" points="12 6.504 9 4 9 6 3 6 3 8 4 8 4 7 9 6.997 9 9"/>
    <path fill="#9AA7B0" fill-opacity=".8" d="M4,3 L4,5 L2,5 L2,13 L12,13 L12,11 L13,11 L13,14 L1,14 L1,3 L4,3 Z"/>
    <path fill="#9AA7B0" fill-opacity=".8" d="M13,10 L13,9 L14,9 L14,3 L6,3 L6,5 L5,5 L5,1 L15,1 L15,10 L13,10 Z"/>
  </g>
</svg>
